X: 30332
T: Old Monaghan Twig, The
R: reel
M: 4/4
K: Amixolydian
ed|cA (3Bcd cAGB|Ad d2 e2ed|cA (3Bcd cAAg|efge d2ed|
cA (3Bcd cAGB|Ad d2 efed|cA (3Bcd cAAg|eage d2 (3Bcd||
eaag deed|(3Bcd ef g2fg|eaag efge|afge d2 (3Bcd|
eaag deed|(3Bcd ef g2fg|ea a2 ea a2|eage d2 ed||

